X: 1
T: The Joynter
B: A COLECTION of the most Celebrated Irish Tunes17c
M: 3/4
L: 1/8
K: G
|:\
D2 E2 G2 | G4 GA | TB4 A2 | GA B2 E2 | Te4 d2 |
Bc d2 G2 | ef g2 d2 | g2 d2 (gf) | Te4 d2 | d6 :|
|:\
ef g2 d2 | g2 d2 (gf) | ef ga gf | Te4 d2 |
BA Bd ef | Te2 d2 | BA Bd ef | Te4 d2 |
g2 ag fe | d2 ed cB | A2 E2 TF2 | HG6 :|
